!!!COM: Palestrina, Giovanni Perluigi da
!!!OPR: Dum complerentur
!!!OTL: Kyrie
**kern	**kern	**kern	**kern	**kern	**kern
*Ibass	*Itenor	*Itenor	*Icalto	*Icalto	*Icant
!Bassus	!Tenor 2	!Tenor 1	!Altus 2	!Altus 1	!Cantus
*clefF4	*clefGv2	*clefGv2	*clefG2	*clefG2	*clefG2
*k[b-]	*k[b-]	*k[b-]	*k[b-]	*k[b-]	*k[b-]
*F:ion	*F:ion	*F:ion	*F:ion	*F:ion	*F:ion
*M4/2	*M4/2	*M4/2	*M4/2	*M4/2	*M4/2
=1	=1	=1	=1	=1	=1
0r	0r	0f	0r	0a	0cc
=2	=2	=2	=2	=2	=2
0r	0r	1e	0r	1g	1cc
.	.	1f	.	1a	1cc
=3	=3	=3	=3	=3	=3
0r	0r	1B-	0f	1b-	1dd
.	.	2F	.	4a	1cc
.	.	.	.	4g	.
.	.	[2f	.	4f	.
.	.	.	.	4e	.
=4	=4	=4	=4	=4	=4
0r	0r	4f]	1f	4d	2.ff
.	.	4e	.	4c	.
.	.	4d	.	1B-	.
.	.	4c	.	.	4ee
.	.	2B-	1f	.	2dd
.	.	2A	.	2c	2cc
=5	=5	=5	=5	=5	=5
0r	0r	2.G	1g	0d	1.b-
.	.	4A	.	.	.
.	.	2B-	1f	.	.
.	.	2F	.	.	2a
=6	=6	=6	=6	=6	=6
0r	0r	2.G	2.b-	1.d	4g
.	.	.	.	.	4f
.	.	.	.	.	4g
.	.	4F	4a	.	4a
.	.	4G	2g	.	4b-
.	.	4A	.	.	4cc
.	.	2B-	2f	2d	[2dd
=7	=7	=7	=7	=7	=7
0r	0r	2c	2e	2e	4dd]
.	.	.	.	.	4cc
.	.	2A	4d	2f	1cc
.	.	.	4c	.	.
.	.	1G	1d	1g	.
.	.	.	.	.	2b
=8	=8	=8	=8	=8	=8
0F	0c	2.A	4f	2r	2cc
.	.	.	4g	.	.
.	.	.	4a	4cc	4f
.	.	4G	4b-	4b-	4g
.	.	4F	2cc	4a	4a
.	.	4G	.	4g	4b-
.	.	4A	2a	2f	4cc
.	.	4B-	.	.	4dd
=9	=9	=9	=9	=9	=9
1C	1c	4c	1g	4e	4ee
.	.	4d	.	4d	4ff
.	.	2e	.	4c	2gg
.	.	.	.	4B-	.
1F	1c	[1f	1a	4A	[1ff
.	.	.	.	4B-	.
.	.	.	.	2c	.
=10	=10	=10	=10	=10	=10
1BB-	1d	1f]	1b-	2B-	2ff]
.	.	.	.	2f	2dd
2C	[1c	1r	1g	[1e	[1ee
[2c	.	.	.	.	.
=11	=11	=11	=11	=11	=11
4c]	0c]	0r	2.cc	2e]	2ee]
4B-	.	.	.	.	.
4A	.	.	.	2e	2cc
4G	.	.	4b-	.	.
2F	.	.	2a	2f	1cc
2E	.	.	2g	2g	.
=12	=12	=12	=12	=12	=12
2.D	2.f	0r	2f	2a	[0dd
.	.	.	2a	2d	.
4C	4e	.	.	.	.
[1BB-	2d	.	2.b-	2.f	.
.	2c	.	.	.	.
.	.	.	4a	4e	.
=13	=13	=13	=13	=13	=13
1BB-]	2B-	0r	2g	1d	1dd]
.	2A	.	1f	.	.
1C	1G	.	.	2.c	2r
.	.	.	2e	.	2g
.	.	.	.	4B-	.
=14	=14	=14	=14	=14	=14
2r	1F	0c	1f	1A	2.a
2F	.	.	.	.	.
.	.	.	.	.	4b-
2.A	1r	.	1r	2r	2cc
.	.	.	.	2c	2a
4B-	.	.	.	.	.
=15	=15	=15	=15	=15	=15
2c	0r	1c	0r	2e	2g
2F	.	.	.	2f	2.a
1A	.	1c	.	2.e	.
.	.	.	.	.	4b-
.	.	.	.	.	[2cc
.	.	.	.	4f	.
=16	=16	=16	=16	=16	=16
1G	1r	1d	0r	1g	2cc]
.	.	.	.	.	2b
1C	2r	1c	.	1e	2.cc
.	2c	.	.	.	.
.	.	.	.	.	4b-
=17	=17	=17	=17	=17	=17
0r	2.d	2.f	2r	2r	4a
.	.	.	.	.	4g
.	.	.	2f	1f	2a
.	4e	4e	.	.	.
.	2f	2.d	2a	.	[1dd
.	2B-	.	[2b-	2f	.
.	.	4c	.	.	.
=18	=18	=18	=18	=18	=18
0r	1d	2B-	4b-]	1f	1dd]
.	.	.	4a	.	.
.	.	1f	2b-	.	.
.	1c	.	1cc	1g	2r
.	.	2e	.	.	2g
=19	=19	=19	=19	=19	=19
0r	2.F	1f	2cc	1f	2.a
.	.	.	2c	.	.
.	4G	.	.	.	4b-
.	2A	2e	2c	1r	2cc
.	2B-	[2d	2d	.	2f
=20	=20	=20	=20	=20	=20
0r	2A	4d]	2e	1r	1a
.	.	4c	.	.	.
.	2F	1c	2f	.	.
.	1G	.	1d	2r	[1g
.	.	2B	.	2d	.
=21	=21	=21	=21	=21	=21
1C	2r	1c	1c	4e	1g]
.	.	.	.	4f	.
.	2c	.	.	4g	.
.	.	.	.	4e	.
2.D	2A	2.F	2r	4f	1r
.	.	.	.	4g	.
.	2d	.	[2f	[2a	.
4E	.	4G	.	.	.
=22	=22	=22	=22	=22	=22
2F	2c	2A	4f]	2a]	0r
.	.	.	4e	.	.
2BB-	2.B-	2B-	1d	2.g	.
1D	.	1F	.	.	.
.	4A	.	.	4f	.
.	2F	.	2B-	[2f	.
=23	=23	=23	=23	=23	=23
1C	1G	1r	0c	2f]	2r
.	.	.	.	2e	2g
1F	2F	2r	.	2f	4a
.	.	.	.	.	4b-
.	2f	2F	.	2a	4cc
.	.	.	.	.	4a
=24	=24	=24	=24	=24	=24
0r	2d	2.G	0r	2g	4b-
.	.	.	.	.	4cc
.	2g	.	.	1b-	1dd
.	.	4A	.	.	.
.	2.f	2B-	.	.	.
.	.	2F	.	2a	[2cc
.	4e	.	.	.	.
=25	=25	=25	=25	=25	=25
1r	1d	1G	2r	1.g	2cc]
.	.	.	2d	.	2b
2r	1c	2r	4e	.	1cc
.	.	.	4f	.	.
2C	.	2c	4g	2e	.
.	.	.	4e	.	.
=26	=26	=26	=26	=26	=26
2.D	2.F	2A	4f	2d	0r
.	.	.	4g	.	.
.	.	2d	1a	2.f	.
4E	4G	.	.	.	.
2F	2A	2c	.	.	.
.	.	.	.	4e	.
2BB-	2B-	[2B-	[2g	[2d	.
=27	=27	=27	=27	=27	=27
1D	1F	4B-]	4g]	2d]	1r
.	.	4A	4f	.	.
.	.	2F	1f	2B-	.
1C	2r	1G	.	1c	2r
.	[2c	.	2e	.	2g
=28	=28	=28	=28	=28	=28
1F	2c]	[0F	[0f	2r	4a
.	.	.	.	.	4b-
.	2A	.	.	2c	4cc
.	.	.	.	.	4a
[1BB-	2F	.	.	2.d	4b-
.	.	.	.	.	4cc
.	[2B-	.	.	.	[2dd
.	.	.	.	4e	.
=29	=29	=29	=29	=29	=29
2BB-]	2B-]	1F_	1f_	2f	2dd]
2F	2A	.	.	2c	2cc
1BB-	1B-	1F_	1f_	1d	1b-
=30	=30	=30	=30	=30	=30
0F	0A	0F]	0f]	0c	0cc
*	*	*	*	*-	*-
!! Christe
*Itenor	*Icalto	*Icalto	*Icant
!Tenor	!Altus 2	!Altus 1	!Cantus
*clefGv2	*clefG2	*clefG2	*clefG2
*k[b-]	*k[b-]	*k[b-]	*k[b-]
*F:ion	*F:ion	*F:ion	*F:ion
*M4/2	*M4/2	*M4/2	*M4/2
=31	=31	=31	=31
0r	1c	0r	0r
.	1c	.	.
=32	=32	=32	=32
0r	1.f	0r	1cc
.	.	.	1cc
.	2e	.	.
=33	=33	=33	=33
0r	4d	0r	1.ff
.	4e	.	.
.	4f	.	.
.	4g	.	.
.	4a	.	.
.	4b-	.	.
.	[2cc	.	2ee
=34	=34	=34	=34
1G	2cc]	0r	0dd
.	4b-	.	.
.	4a	.	.
1G	4b-	.	.
.	4a	.	.
.	4g	.	.
.	4f	.	.
=35	=35	=35	=35
1.c	2.e	1g	1cc
.	4d	.	.
.	4e	1g	1r
.	4f	.	.
2B-	2g	.	.
=36	=36	=36	=36
4A	2f	1.cc	0r
4B-	.	.	.
4c	2e	.	.
4d	.	.	.
4e	1g	.	.
4f	.	.	.
[2g	.	2b-	.
=37	=37	=37	=37
4g]	2d	1a	0r
4f	.	.	.
1f	2f	.	.
.	1c	2.g	.
4e	.	.	.
4d	.	4f	.
=38	=38	=38	=38
2e	2r	2g	1cc
1f	4f	1a	.
.	4g	.	.
.	4a	.	1cc
.	4b-	.	.
2e	[2cc	2g	.
=39	=39	=39	=39
1d	2cc]	2.f	1.ff
.	2b	.	.
.	.	4g	.
1c	1cc	4a	.
.	.	4b	.
.	.	[2cc	2ee
=40	=40	=40	=40
0r	1g	2cc]	1dd
.	.	2b	.
.	2.a	1cc	2cc
.	.	.	2f
.	8g	.	.
.	8f	.	.
=41	=41	=41	=41
2r	2e	2.cc	2g
2.f	2f	.	2a
.	.	4a	.
.	2d	2b-	2f
4d	.	.	.
2e	2c	4cc	2g
.	.	4b-	.
=42	=42	=42	=42
4f	2r	4a	1a
4e	.	4g	.
4d	2f	4f	.
4c	.	4e	.
2B-	2g	2d	2r
2A	[2a	2e	[2cc
=43	=43	=43	=43
1d	2a]	2.f	4cc]
.	.	.	4a
.	2f	.	2b-
.	.	4d	.
2c	1r	2e	4cc
.	.	.	4b-
2F	.	4f	4a
.	.	4e	4g
=44	=44	=44	=44
2.B-	0r	4d	2f
.	.	4c	.
.	.	4B-	2.b-
4A	.	4c	.
2G	.	4d	.
.	.	4e	4g
2F	.	[2f	2a
=45	=45	=45	=45
2.c	2r	2f]	1g
.	2.cc	4e	.
4B-	.	4d	.
2A	.	2e	2a
.	4a	.	.
2d	2b-	[2f	2f
=46	=46	=46	=46
1c	2.cc	2f]	1g
.	.	2e	.
.	4b-	.	.
2.f	4a	4f	1f
.	4g	4g	.
.	2f	4a	.
4d	.	4b-	.
=47	=47	=47	=47
2e	2g	1cc	1r
4f	1a	.	.
4e	.	.	.
4d	.	1f	2.ff
4c	.	.	.
2B-	2b-	.	.
.	.	.	4dd
=48	=48	=48	=48
2c	2g	0r	2ee
2F	2a	.	4ff
.	.	.	4ee
2.B-	2f	.	4dd
.	.	.	4cc
.	2g	.	2b-
4G	.	.	.
=49	=49	=49	=49
2A	2e	2r	2cc
2B-	2d	2.g	2.dd
2c	2e	.	.
.	.	4e	4cc
2A	2c	2f	[2cc
=50	=50	=50	=50
1G	1d	2.g	2cc]
.	.	.	2b
.	.	4f	.
2r	2c	4e	1cc
.	.	4d	.
[2c	2g	[2e	.
=51	=51	=51	=51
4c]	2a	4e]	1r
4A	.	4f	.
2B-	2g	2d	.
4c	2e	2c	2r
4B-	.	.	.
4A	[2a	2e	[2cc
4G	.	.	.
=52	=52	=52	=52
2F	2a]	2f	4cc]
.	.	.	4a
2G	2g	2d	2b-
1A	2e	1c	4cc
.	.	.	4b-
.	[2f	.	4a
.	.	.	4g
=53	=53	=53	=53
1B-	4f]	1d	2f
.	4e	.	.
.	1d	.	2g
1A	.	1e	1a
.	2c#	.	.
=54	=54	=54	=54
1d	2d	1f	2r
.	2.f	.	2.a
1r	.	2r	.
.	4d	.	4f
.	2e	[2cc	2g
=55	=55	=55	=55
1r	2f	4cc]	2a
.	.	4a	.
.	2d	2b-	2f
2r	2c	4cc	2g
.	.	4b-	.
[2f	4f	4a	2a
.	4g	4g	.
=56	=56	=56	=56
4f]	4a	2f	1r
4d	4b-	.	.
2e	1cc	2g	.
4f	.	1a	2r
4e	.	.	.
4d	2f	.	[2ff
4c	.	.	.
=57	=57	=57	=57
2B-	1r	2b-	4ff]
.	.	.	4dd
2c	.	2g	2ee
4d	2r	1f	4ff
4c	.	.	4ee
4B-	[2b-	.	4dd
4A	.	.	4cc
=58	=58	=58	=58
2G	4b-]	1r	2b-
.	4g	.	.
2F	2a	.	2cc
1B-	4b-	2r	4dd
.	4a	.	4cc
.	4g	[2g	4b-
.	4f	.	4a
=59	=59	=59	=59
2c	2e	4g]	2g
.	.	4e	.
2A	2c	2f	1cc
1G	1d	2.g	.
.	.	.	2b
.	.	4f	.
=60	=60	=60	=60
0c	2c	4e	[0cc
.	.	4d	.
.	2e	2c	.
.	1g	[1e	.
=61	=61	=61	=61
1A	0a	1e]	1cc_
1F	.	1f	1cc_
=62	=62	=62	=62
0c	0g	0e	0cc]
==	==	==	==
*-	*-	*-	*-
!!!CDT: 1525/^1526/-1594/2/2
!!!OCY: Italia
!!!AGN: Mass (Parody)
!!!AST: renaissance, vocal
!!!ASW: Motet 1569 (Palestrina)
!!!PWK: Masses, Book 8
!!!RNB: Cadence finals: C
!!!YOR: Le Opere Complete, v. 24, p. 117
!!!YOO: Rome, Italy: Fratelli Scalera
!!!END: 1992//
!!!EED: John Miller
!!!YEC: Copyright 2000, John Miller
!!!YEN: United States of America
!!!YEM: Rights to all derivative electronic formats reserved.
!!!YEM: Refer to licensing agreement for further details.
!!!YEM: This file must be accompanied by the licensing agreement.
!!!YEM: A copy of the licensing agreement may be found at http://www.music-cog.ohio-state.edu/HumdrumDatabases/Palestrina/license.txt
!!!EMD: converted to Humdrum by Bret Aarden
